X: 33801
T: Ray's Classic
R: polka
M: 2/4
K: Amajor
|:A>B AE|FA E2|FB BA/B/|cB Bc|
A>B AE|FA E2|FB BA/B/|cA Ac:|
|:e>f eA|f2 f2|Bf Bf|g2 g2|
cg cg|ab/a/ gf|ec BA/B/|cA Ac:|

